src/assets/icons/files-folders-data,simple,document.svg

<svg width="48" height="48" viewBox="0 0 48 48" fill="none" xmlns="http://www.w3.org/2000/svg">
<rect opacity="0.2" x="5" y="5" width="38" height="38" rx="4" fill="black"/>
<path d="M12 16C12 12.2288 12 10.3431 13.1716 9.17157C14.3431 8 16.2288 8 20 8H28C31.7712 8 33.6569 8 34.8284 9.17157C36 10.3431 36 12.2288 36 16V30H30C27.7909 30 26 31.7909 26 34V40H20C16.2288 40 14.3431 40 13.1716 38.8284C12 37.6569 12 35.7712 12 32V16Z" fill="black"/>
<path opacity="0.6" d="M36 30H30C27.7909 30 26 31.7909 26 34V40L36 30Z" fill="black"/>
</svg>

<svg xmlns="http://www.w3.org/2000/svg" width="48" height="48" fill="none" viewBox="0 0 48 48">
  <rect width="38" height="38" x="5" y="5" fill="#000" opacity=".2" rx="4"/>
  <path fill="#000" d="M12 16c0-3.771 0-5.657 1.172-6.828C14.343 8 16.229 8 20 8h8c3.771 0 5.657 0 6.828 1.172C36 10.343 36 12.229 36 16v14h-6a4 4 0 00-4 4v6h-6c-3.771 0-5.657 0-6.828-1.172C12 37.657 12 35.771 12 32V16z"/>
  <path fill="#000" d="M36 30h-6a4 4 0 00-4 4v6l10-10z" opacity=".6"/>
</svg>
